img/icon-map-mark-1.svg

<svg width="40" height="56" viewBox="0 0 40 56" fill="none" xmlns="http://www.w3.org/2000/svg">
<path d="M39.9651 19.2513C39.9651 8.62459 31.028 0.00902795 20 0C8.97199 0.00902795 0.0348964 8.62459 0.0348964 19.2513C-0.788614 28.6684 13.1875 48.1624 18.235 54.8621C18.8025 55.6153 19.411 55.9937 19.9999 56C20.5888 55.9937 21.1973 55.6153 21.7648 54.8621C26.8125 48.1625 40.7886 28.6684 39.9651 19.2513Z" fill="#91C137"/>
<g clip-path="url(#clip0_301_303)">
<path d="M14.6196 20.1907C12.3404 17.3535 9.16983 15.3721 5.62248 14.5843C5.2695 14.4886 4.90039 14.6854 4.78583 15.0368C2.92387 20.7518 4.42845 27.0461 8.68685 31.3035C11.5821 34.1979 15.5817 35.9883 19.9997 35.9883C24.4173 35.9883 28.4169 34.1979 31.3122 31.3035C34.9011 27.7155 36.6413 22.5728 35.7845 17.3904C35.6539 16.594 35.4652 15.821 35.2249 15.0753C35.1315 14.7186 34.7716 14.4965 34.4083 14.5763L34.4087 14.577C26.8947 16.2299 21.7257 22.9643 21.8652 30.4834L21.8886 30.9072C21.9769 31.2783 22.3491 31.5077 22.7205 31.42L22.72 31.4196C25.3318 30.8002 27.6076 29.3064 29.2211 27.2638C30.8019 25.2619 31.7457 22.7367 31.7457 19.9939C31.7457 19.6126 31.4371 19.3034 31.0553 19.3034C30.6737 19.3034 30.3643 19.6126 30.3643 19.9939C30.3643 22.42 29.5336 24.6491 28.1418 26.4113C26.8965 27.988 25.2005 29.1943 23.2468 29.8373C23.4049 23.3031 27.8836 17.7256 34.0859 16.075C35.5 21.1556 34.0504 26.6133 30.3358 30.327C27.6904 32.9712 24.0363 34.6069 19.9999 34.6069C15.9631 34.6069 12.3089 32.9712 9.66397 30.327C6.04465 26.709 4.65946 21.7397 5.75869 16.7309L5.91368 16.075C12.0702 17.7137 16.4737 23.1875 16.7443 29.5707C16.7484 29.6594 16.7509 29.7486 16.7529 29.8373C14.7991 29.1943 13.1028 27.988 11.8578 26.4113C10.4657 24.649 9.63493 22.4199 9.63493 19.9939C9.63493 19.6126 9.32558 19.3034 8.94398 19.3034C8.56237 19.3034 8.25337 19.6126 8.25337 19.9939C8.25337 22.7367 9.19733 25.2619 10.7781 27.2638C12.386 29.2992 14.6516 30.7898 17.2522 31.4131C17.3038 31.4275 17.3582 31.436 17.4141 31.4382C17.9026 31.4553 18.1645 30.9761 18.1288 30.7718C18.2 26.8561 17.0863 23.2609 14.6196 20.1907Z" fill="white"/>
<path d="M6.43276 11.5202C6.23127 11.8437 6.33027 12.2686 6.65379 12.47C6.97724 12.671 7.40241 12.5719 7.60348 12.2488C8.93959 10.1114 10.7784 8.39387 12.9127 7.21069C15.0453 6.0296 17.4764 5.38112 19.9997 5.38112C22.523 5.38112 24.9543 6.0296 27.0864 7.21069C29.2206 8.39387 31.0599 10.1115 32.3956 12.2488C32.5967 12.5719 33.0219 12.6711 33.3453 12.47C33.6687 12.2686 33.7678 11.8438 33.5667 11.5202C32.1058 9.18242 30.0926 7.30268 27.7556 6.00789C25.4158 4.71101 22.755 4 19.9997 4C17.2443 4 14.5832 4.71101 12.2434 6.00789C9.90645 7.30268 7.89356 9.18242 6.43276 11.5202Z" fill="white"/>
<path d="M11.5074 12.6409C11.2899 12.3296 10.8609 12.2534 10.5495 12.4709C10.2381 12.6882 10.1618 13.1174 10.3793 13.4286C11.4803 15.0007 12.9275 16.2536 14.5763 17.1114C16.2279 17.9711 18.0844 18.4386 19.9997 18.4386C21.915 18.4386 23.771 17.9711 25.4227 17.1114C27.0716 16.2536 28.5186 15.0007 29.6197 13.4286C29.8372 13.1174 29.7613 12.6882 29.4499 12.4709C29.1385 12.2534 28.7092 12.3295 28.4919 12.6409C27.524 14.0226 26.2463 15.127 24.7861 15.8867C23.3291 16.6449 21.6908 17.0573 19.9997 17.0573C18.3081 17.0573 16.6703 16.645 15.2128 15.8867C13.753 15.127 12.475 14.0226 11.5074 12.6409Z" fill="white"/>
<path d="M22.0612 9.12371C21.5332 8.5962 20.8044 8.27011 19.9992 8.27011C19.1939 8.27011 18.4647 8.5962 17.9372 9.12371C17.4095 9.65123 17.0833 10.3801 17.0833 11.1852C17.0833 11.9902 17.4095 12.7192 17.9372 13.2465C18.4647 13.774 19.1939 14.1004 19.9992 14.1004C20.8044 14.1004 21.5333 13.7739 22.0612 13.2465C22.5885 12.7192 22.915 11.9902 22.915 11.1852C22.915 10.38 22.5884 9.65123 22.0612 9.12371ZM19.9991 6.88892C21.1856 6.88892 22.2602 7.36981 23.0377 8.14762C23.8156 8.92494 24.2968 9.9991 24.2968 11.1852C24.2968 12.3714 23.8156 13.4457 23.0377 14.223C22.2602 15.0007 21.1856 15.4817 19.9991 15.4817C18.8122 15.4817 17.738 15.0007 16.9602 14.223C16.1823 13.4457 15.7014 12.3714 15.7014 11.1852C15.7014 9.9991 16.1822 8.92494 16.9602 8.14762C17.738 7.36981 18.8122 6.88892 19.9991 6.88892Z" fill="white"/>
<path fill-rule="evenodd" clip-rule="evenodd" d="M19.9895 5.42313C28.0806 5.42313 34.6399 11.9806 34.6399 20.0697C34.6399 28.159 28.0806 34.7164 19.9895 34.7164C11.8981 34.7164 5.33871 28.159 5.33871 20.0697C5.33871 11.9806 11.8981 5.42313 19.9895 5.42313ZM19.9895 4.13965C28.7896 4.13965 35.9238 11.2718 35.9238 20.0697C35.9238 28.8676 28.7897 35.9999 19.9895 35.9999C11.189 35.9999 4.05518 28.8677 4.05518 20.0697C4.05518 11.2718 11.189 4.13965 19.9895 4.13965Z" fill="white"/>
<path d="M19.9895 5.42313C28.0806 5.42313 34.6399 11.9806 34.6399 20.0697C34.6399 28.159 28.0806 34.7164 19.9895 34.7164C11.8981 34.7164 5.33871 28.159 5.33871 20.0697C5.33871 11.9806 11.8981 5.42313 19.9895 5.42313ZM19.9895 4.13965C28.7896 4.13965 35.9238 11.2718 35.9238 20.0697C35.9238 28.8676 28.7897 35.9999 19.9895 35.9999C11.189 35.9999 4.05518 28.8677 4.05518 20.0697C4.05518 11.2718 11.189 4.13965 19.9895 4.13965Z" stroke="white" stroke-width="0.2835" stroke-miterlimit="22.9256"/>
</g>
<defs>
<clipPath id="clip0_301_303">
<rect width="32" height="32" fill="white" transform="translate(4 4)"/>
</clipPath>
</defs>
</svg>

<svg width="40" height="56" fill="none" xmlns="http://www.w3.org/2000/svg"><path d="M39.965 19.251C39.965 8.625 31.028.01 20 0 8.972.009.035 8.625.035 19.251c-.824 9.417 13.152 28.911 18.2 35.611.567.753 1.176 1.132 1.765 1.138.589-.006 1.197-.385 1.765-1.138 5.047-6.7 19.024-26.194 18.2-35.61Z" fill="#91C137"/><g clip-path="url(#a)"><path d="M14.62 20.19a15.995 15.995 0 0 0-8.998-5.606.69.69 0 0 0-.836.453 16.005 16.005 0 0 0 3.9 16.267A15.951 15.951 0 0 0 20 35.987c4.417 0 8.417-1.79 11.312-4.684a15.966 15.966 0 0 0 4.473-13.914c-.131-.796-.32-1.569-.56-2.315a.691.691 0 0 0-.817-.499v.001c-7.513 1.653-12.682 8.387-12.543 15.906l.024.424c.088.371.46.6.832.513h-.001a11.751 11.751 0 0 0 6.501-4.156 11.692 11.692 0 0 0 2.525-7.27.69.69 0 1 0-1.382 0c0 2.426-.83 4.655-2.222 6.417a10.38 10.38 0 0 1-4.895 3.426c.158-6.534 4.637-12.111 10.839-13.762a14.635 14.635 0 0 1-3.75 14.252A14.575 14.575 0 0 1 20 34.607a14.573 14.573 0 0 1-10.336-4.28c-3.62-3.618-5.005-8.587-3.905-13.596l.155-.656a14.62 14.62 0 0 1 10.839 13.762 10.378 10.378 0 0 1-4.895-3.426 10.315 10.315 0 0 1-2.223-6.417.69.69 0 0 0-1.382 0c0 2.743.944 5.268 2.525 7.27a11.752 11.752 0 0 0 6.474 4.15.706.706 0 0 0 .162.024c.489.017.75-.462.715-.666.071-3.916-1.043-7.511-3.51-10.581ZM6.433 11.52a.69.69 0 1 0 1.17.729A14.614 14.614 0 0 1 27.086 7.21a14.612 14.612 0 0 1 5.31 5.038.69.69 0 0 0 1.17-.729 15.982 15.982 0 0 0-5.81-5.512A15.99 15.99 0 0 0 6.433 11.52Z" fill="#fff"/><path d="M11.507 12.64a.688.688 0 0 0-1.128.789 11.738 11.738 0 0 0 15.044 3.682 11.738 11.738 0 0 0 4.197-3.682.688.688 0 1 0-1.128-.788 10.365 10.365 0 0 1-13.28 3.246 10.358 10.358 0 0 1-3.705-3.246Z" fill="#fff"/><path d="M22.061 9.124A2.908 2.908 0 0 0 20 8.27c-.805 0-1.534.326-2.062.854a2.906 2.906 0 0 0-.854 2.061c0 .805.327 1.534.854 2.061A2.907 2.907 0 0 0 20 14.1c.805 0 1.534-.326 2.062-.854a2.907 2.907 0 0 0 .854-2.06c0-.806-.327-1.535-.854-2.062ZM20 6.889c1.187 0 2.261.48 3.039 1.259a4.281 4.281 0 0 1 1.259 3.037c0 1.186-.481 2.26-1.26 3.038A4.284 4.284 0 0 1 20 15.482a4.284 4.284 0 0 1-3.039-1.259 4.281 4.281 0 0 1-1.259-3.038c0-1.186.481-2.26 1.26-3.037a4.284 4.284 0 0 1 3.038-1.26Z" fill="#fff"/><path fill-rule="evenodd" clip-rule="evenodd" d="M19.99 5.423c8.09 0 14.65 6.558 14.65 14.647s-6.56 14.646-14.65 14.646c-8.092 0-14.651-6.557-14.651-14.646 0-8.09 6.56-14.647 14.65-14.647Zm0-1.283c8.8 0 15.934 7.132 15.934 15.93S28.79 36 19.99 36c-8.801 0-15.935-7.132-15.935-15.93S11.19 4.14 19.99 4.14Z" fill="#fff"/><path d="M19.99 5.423c8.09 0 14.65 6.558 14.65 14.647s-6.56 14.646-14.65 14.646c-8.092 0-14.651-6.557-14.651-14.646 0-8.09 6.56-14.647 14.65-14.647Zm0-1.283c8.8 0 15.934 7.132 15.934 15.93S28.79 36 19.99 36c-8.801 0-15.935-7.132-15.935-15.93S11.19 4.14 19.99 4.14Z" stroke="#fff" stroke-width=".283" stroke-miterlimit="22.926"/></g><defs><clipPath id="a"><path fill="#fff" transform="translate(4 4)" d="M0 0h32v32H0z"/></clipPath></defs></svg>
